X: 21813
Q: "Jig time."
M: 6/8
L: 1/8
K: F
f/e/ |\
dcB AGF | ABA A2f | dcB AGF | GAG G2f |\
dcB AGF | ABA A2d | cde f2A | G>AG G2 :|
|: A/B/ |\
f2g {fg}a2g | f2d c2A | cde fcA | G>AG G2 :|


